X: 26617
T: Mickey Callaghan's Fancy
R: hornpipe
M: 4/4
K: Dmajor
|:cB|AFEF ABcB|AFEF ABcd|e2ef ecAB|cBBA B2cB|
AFEF ABcB|AFEF ABcd|e2ef ecAc|BABc A4:|
|:a2f3afe|cde2 efec|Acd2 dBc2|BAFB BAB2|
cBAF EFAB|cBAF EFAB|cde2 efec|AcBA BcA2:|

